X:95
T: Big (*) Deal
C: BB
M: 2/4
L: 1/8
Q: 1/8=300
R: polka
K: G
"G"B>A GA|"Em"Be "D"dA|"G"B>A GD|"C"EG "D"A2|"G"B>A GA|"Em"Bg ed|\
"G"(3Bcd "Am"cA|"G"BG G2 :|
"G"g>e de|"Em"gb "D"af|"G"g>e dg|"C"eg "D"a2|"G"g>e de|"Em"gb "D"af|\
"G"gd "Am"cA | "G"BG GB |
"G"g>e de|"Em"gb "D"af|"G"g>e dg|"C"eg "D"a2|"G"bg "D"af|"Em"(3efg dB|\
"Am"Ac BA |"G"BG G2 ||
%%%%%%%%%%%%%%%%%%%%%%%%%%%%%%%%%%%%%%%%%%%
